assets/comments.svg

<?xml version="1.0" encoding="UTF-8"?>
<svg width="16px" height="16px" viewBox="0 0 16 16" version="1.1" xmlns="http://www.w3.org/2000/svg" xmlns:xlink="http://www.w3.org/1999/xlink">
    <title>Path</title>
    <g id="Symbols" stroke="none" stroke-width="1" fill="none" fill-rule="evenodd">
        <g id="builder/comment-login" transform="translate(-113.000000, -12.000000)" fill="#71717A" fill-rule="nonzero">
            <g id="Group" transform="translate(113.000000, 12.000000)">
                <path d="M8.06490872,0 C3.62559322,0 0,3.36876366 0,7.52944153 C0,11.6978282 3.62368954,15.0588831 8.0741814,15.0588831 L8.46755199,15.0505161 C8.99147516,15.0273298 9.51256609,14.9560946 10.0242437,14.837678 L10.181449,14.7969627 L10.3197335,14.8866393 L11.0607379,15.3199073 L11.0987259,15.3436457 C11.845665,15.8379935 13.0076909,16.0451499 14.5899124,15.9918471 L15.3741516,15.9654273 L13.6402726,12.9130375 L13.8356177,12.7033606 C15.2720729,11.1066691 16,9.37784774 16,7.52944153 C16,3.34798498 12.4818374,0 8.06490872,0 Z M8.06490872,0.956792883 C11.9754235,0.956792883 15.0588235,3.89104532 15.0588235,7.52944153 C15.0588235,9.28846879 14.2895225,10.9379651 12.7251004,12.4946276 L12.4642037,12.7542303 L13.759802,15.0371177 L13.5227268,15.0263986 C12.7421381,14.9804447 12.1454319,14.8406864 11.7357993,14.6159302 L11.3189266,14.3669706 L10.9722827,14.167541 L10.7687594,14.0438194 C10.6832532,13.9894946 10.6227273,13.9468845 10.5898679,13.917837 L10.3993795,13.7494466 L10.1560218,13.8176426 C9.47816341,14.0075987 8.77810781,14.1032856 8.07496795,14.1020908 C4.12520549,14.1020902 0.941176471,11.1488305 0.941176471,7.52944153 C0.941176471,3.91734858 4.12744056,0.956792883 8.06490872,0.956792883 Z" id="Path"></path>
            </g>
        </g>
    </g>
</svg>

<svg width="16" height="16" xmlns="http://www.w3.org/2000/svg"><path d="M8.065 0C3.625 0 0 3.369 0 7.53c0 4.168 3.624 7.529 8.074 7.529l.394-.008a8.588 8.588 0 0 0 1.556-.213l.157-.041.139.09.74.433.039.024c.747.494 1.909.701 3.49.648l.785-.027-1.734-3.052.196-.21C15.272 11.107 16 9.378 16 7.53 16 3.348 12.482 0 8.065 0Zm0 .957c3.91 0 6.994 2.934 6.994 6.572 0 1.76-.77 3.409-2.334 4.966l-.26.26 1.295 2.282-.237-.01c-.78-.047-1.378-.186-1.787-.411l-.417-.249-.347-.2-.203-.123a1.592 1.592 0 0 1-.18-.126l-.19-.169-.243.069a7.663 7.663 0 0 1-2.081.284c-3.95 0-7.134-2.953-7.134-6.573C.941 3.917 4.127.957 8.065.957Z" fill="#71717A" fill-rule="nonzero"/></svg>
